2024/special/img/under_line_mobile/Vector 58 (4).svg

<svg width="320" height="26" viewBox="0 0 320 26" fill="none" xmlns="http://www.w3.org/2000/svg">
<path d="
    M5 22.5
    L0 20.1132
    V25.8868
    L5 23.5
    V22.5
    Z
    M80 3
    V2.5
    H79.7597
    L79.6096 2.68765
    L80 3
    Z
    M64 23
    V23.5
    H64.2403
    L64.3904 23.3123
    L64 23
    Z
    M315 3.5
    L320 5.88675
    V0.113249
    L315 2.5
    V3.5
    Z
    M4.5 23.5
    H64
    V22.5
    H4.5
    V23.5
    Z
    M64.3904 23.3123
    L80.3904 3.31235
    L79.6096 2.68765
    L63.6096 22.6877
    L64.3904 23.3123
    Z
    M315.5 2.5
    H80
    V3.5
    H315.5
    V2.5
    8tZ" fill="black"/>
</svg>

<svg xmlns="http://www.w3.org/2000/svg" width="320" height="26" fill="none" viewBox="0 0 320 26"><path fill="#000" d="m5 22.5-5-2.39v5.78l5-2.39zM80 3v-.5h-.24l-.15.19zM64 23v.5h.24l.15-.19zM315 3.5l5 2.39V.1l-5 2.39zM4.5 23.5H64v-1H4.5zm59.89-.19 16-20-.78-.62-16 20zM315.5 2.5H80v1h235.5zV8Z"/></svg>
